X:555
T: "Liebe ueber alles"
N: Z1235
O: Europa, Mitteleuropa, Oesterreich
R: Liebes - Lied
M: 3/4
L: 1/8
K: G
G2 | Gd^cdB2 | Ae^dec2 |
Fedec2 | Bgfgd2 |
Gd^cdB2 | Ae^dec2 |
FedecF | G4

@@@ Tune index: 10313
